X: 21332
T: Keraus
R: reel
M: 4/4
K: Dmajor
DFEC DFEC|DEFG ABcd|cBge dcBA|^GABA =GFGE|
DFEC DFEC|DEFG ABcd|cBge dcBA|^GABc d4:|
|:fbfb fg2 f|eaea fafd|cBge dcBA|^GABA =GFGE|
DFEC DFEC|DEFG ABcd|cBge dcBA|^GABc d4:|
|:B3 ^A B3 ^A|Bcde ef a2|A3 ^G A3 ^G|ABcd efaf|d2 dc d2 dc|
dfba gfed|cea^g ba=ge|1 cABc dAcA:|2 cABc d2 z2||
K:G
|:B4 B>G B2|d4 F3 F|G2 DE FGAB|c4 (B2 B)c/B/|AFEF GABc|
d2 B2 G2 cd|e2 c2 A2 Bc|d2 Bd c2 Ac|1 BGAF G4:|2 BGAF G2 B2||
K:D
|:cA (3AAA ^GABc|dA (3AAA Adef|gAfA gAfA|edcB Aged|
c2 cA ^GABc|dAGA Fdef|gAfA gAfA|1 gece d2 ed:|2 gece d4:|
F2 D2 D2 D2|E2 d2 E2 d2|FdFd FdFd|GdGd GdGd|
dfec dfec|dfec dfec|d2 d2 d2 d2|d2 cB AGFE|D2 [A,Ec]2 [A,Fd]2||

